X:322
T:Hela'r Sgwarnog
T:Hunting the Hare
C:Traditional Welsh
L:1/8
M:6/8
S:Colin Hume's website,  colinhume.com  - chords can also be printed below the stave.
Q:3/8=112
H:For the dance "Pengwern Valley Galop" by Pat Shaw.
K:C
P:A
[| "C"c2C EFG | "F"A2d "G7"BAB | "C"c2C EFG | "G7"AcB "C"c3 |\
"C"c2C EFG | "F"A2d "G7"BAB | "C"c2C EFG | "G7"AcB "C"c3 |]
P:B
|: "C"edc edc | "C"edc edc | "G"dBc dBc | "Dm"Bfe "G7"d3 |\
"C"c2C EFG | "F"A2d "G7"BAB | "C"c2C EFG | "G7"AcB "C"c3 :|

